assets/icons/static_dynamic_events/accelleration.svg

<svg fill="none" height="50" viewBox="0 0 72 50" width="72" xmlns="http://www.w3.org/2000/svg"><g fill="#525252"><path d="m20.4605 17.2484c.0148-.2295-.0623-.4557-.2141-.6284l-6.8713-7.8174c-.1518-.17272-.3661-.27805-.5958-.29289-.2307-.01471-.4557.06225-.6284.21406-3.1574 2.77543-5.77817 6.04853-7.78994 9.72833-.11024.2019-.13605.4393-.07135.6599.06469.2208.2144.4068.41632.517l9.13277 4.9921c.1321.0723.2747.1065.4154.1065.3068 0 .6042-.1632.7617-.4514 1.3297-2.4323 3.0631-4.5964 5.1517-6.4323.173-.1515.2784-.3658.293-.5955z"/><path d="m23.5268 14.3529c.1558.2937.4563.4611.767.4611.1371 0 .2762-.0326.4056-.1013 2.4479-1.2982 5.0813-2.1454 7.8272-2.5179.4746-.0643.8073-.5013.7429-.976l-1.3989-10.313563c-.0643-.474594-.5026-.8068323-.976-.742954-4.17.565565-8.1687 1.851777-11.885 3.822907-.4231.22445-.5841.74926-.3599 1.17259z"/><path d="m12.3536 28.3108-10.0451-2.7254c-.22199-.06-.45882-.0298-.6584.0847-.19958.1144-.34544.3034-.40581.5254-.825517 3.0437-1.24429 6.1984-1.24429 9.3764 0 .5439.0129626 1.0895.0399387 1.6681.0216043.4649.4049923.8272.8658063.8272.013546 0 .027326-.0003.040873-.001l10.396982-.4803c.2298-.0105.4461-.1121.6009-.282.1549-.1699.2361-.3947.2254-.6244-.0181-.3902-.0269-.7525-.0269-1.1076 0-2.1043.2762-4.1892.8209-6.197.125-.4622-.1481-.9386-.6103-1.0641z"/><path d="m51.2348 3.36593c-3.785-1.82468-7.829-2.955463-12.0196-3.36162392-.2303-.02312238-.4576.04764582-.6352.19373792-.1776.146208-.2897.356879-.3119.586002l-1.0035 10.359754c-.0462.4767.3029.9007.7797.9469 2.7621.2675 5.426 1.0123 7.9177 2.2134.1186.0572.2474.0862.3766.0862.0965 0 .1932-.0162.2862-.0486.217-.0758.3953-.2349.4951-.4421l4.5194-9.37591c.2082-.43139.0271-.94989-.4045-1.15776z"/><path d="m66.5229 17.9162c.056-.2232.0214-.4592-.0967-.6568-2.1525-3.6009-4.897-6.7712-8.1569-9.42249-.1785-.14504-.4064-.21301-.6361-.19-.2287.02371-.4388.1371-.5839.31554l-6.5673 8.07465c-.1451.1785-.2135.4073-.1898.6361.0235.2287.137.4388.3155.5841 2.157 1.7539 3.9723 3.8508 5.3959 6.2324.1625.2717.4501.4225.7454.4225.1514 0 .3048-.0397.4441-.123l8.9338-5.3402c.1972-.118.3397-.3097.396-.5328z"/><path d="m69.8395 24.8759c-.1434-.4572-.6302-.7119-1.0869-.5684l-9.9319 3.112c-.4572.1432-.7116.6298-.5684 1.0867.7128 2.2756 1.0743 4.6524 1.0743 7.0645 0 .3552-.0089.7175-.0269 1.1076-.0107.2297.0703.4545.2254.6244.1549.17.3711.2715.6008.282l10.397.4803c.0138.0006.0274.001.0409.001.4606 0 .8441-.3624.8658-.8272.0268-.5786.04-1.1242.04-1.6681-.0003-3.6451-.5484-7.2434-1.6301-10.6948z"/><path d="m35.704 33.73c-.1496 0-.2984.0049-.4466.0128l-14.0895-8.3129c-.3448-.2038-.7826-.1528-1.0716.1243-.2891.2769-.3585.7123-.17 1.0652l7.6859 14.4054c-.0283.2774-.0433.5576-.0433.8402 0 2.173.8461 4.2159 2.3826 5.7523 1.5366 1.5366 3.5796 2.3828 5.7526 2.3828s4.2159-.8464 5.7523-2.3828c1.5366-1.5364 2.3827-3.5793 2.3827-5.7523 0-2.1731-.8462-4.2159-2.3827-5.7524-1.5364-1.5364-3.5795-2.3826-5.7524-2.3826z"/></g></svg>

<svg width="72" height="50" viewBox="0 0 72 50" fill="none" xmlns="http://www.w3.org/2000/svg">
<path d="M20.4605 17.2484C20.4753 17.0189 20.3982 16.7927 20.2464 16.62L13.3751 8.8026C13.2233 8.62988 13.009 8.52455 12.7793 8.50971C12.5486 8.495 12.3236 8.57196 12.1509 8.72377C8.9935 11.4992 6.37273 14.7723 4.36096 18.4521C4.25072 18.654 4.22491 18.8914 4.28961 19.112C4.3543 19.3328 4.50401 19.5188 4.70593 19.629L13.8387 24.6211C13.9708 24.6934 14.1134 24.7276 14.2541 24.7276C14.5609 24.7276 14.8583 24.5644 15.0158 24.2762C16.3455 21.8439 18.0789 19.6798 20.1675 17.8439C20.3405 17.6924 20.4459 17.4781 20.4605 17.2484Z" fill="#525252"/>
<path d="M23.5268 14.3529C23.6826 14.6466 23.9831 14.814 24.2938 14.814C24.4309 14.814 24.57 14.7814 24.6994 14.7127C27.1473 13.4145 29.7807 12.5673 32.5266 12.1948C33.0012 12.1305 33.3339 11.6935 33.2695 11.2188L31.8706 0.905237C31.8063 0.430643 31.368 0.0984047 30.8946 0.162283C26.7246 0.727848 22.7259 2.01406 19.0096 3.98519C18.5865 4.20964 18.4255 4.73445 18.6497 5.15778L23.5268 14.3529Z" fill="#525252"/>
<path d="M12.3536 28.3108L2.3085 25.5854C2.08651 25.5254 1.84968 25.5556 1.6501 25.6701C1.45052 25.7845 1.30466 25.9735 1.24429 26.1955C0.418773 29.2392 0 32.3939 0 35.5719C0 36.1158 0.0129626 36.6614 0.0399387 37.24C0.061543 37.7049 0.444931 38.0672 0.905745 38.0672C0.919291 38.0672 0.933071 38.0669 0.946618 38.0662L11.3436 37.5859C11.5734 37.5754 11.7897 37.4738 11.9445 37.3039C12.0994 37.134 12.1806 36.9092 12.1699 36.6795C12.1518 36.2893 12.143 35.927 12.143 35.5719C12.143 33.4676 12.4192 31.3827 12.9639 29.3749C13.0889 28.9127 12.8158 28.4363 12.3536 28.3108Z" fill="#525252"/>
<path d="M51.2348 3.36593C47.4498 1.54125 43.4058 0.410467 39.2152 0.00430608C38.9849 -0.0188163 38.7576 0.0519519 38.58 0.198044C38.4024 0.344252 38.2903 0.554923 38.2681 0.784046L37.2646 11.1438C37.2184 11.6205 37.5675 12.0445 38.0443 12.0907C40.8064 12.3582 43.4703 13.103 45.962 14.3041C46.0806 14.3613 46.2094 14.3903 46.3386 14.3903C46.4351 14.3903 46.5318 14.3741 46.6248 14.3417C46.8418 14.2659 47.0201 14.1068 47.1199 13.8996L51.6393 4.52369C51.8475 4.0923 51.6664 3.5738 51.2348 3.36593Z" fill="#525252"/>
<path d="M66.5229 17.9162C66.5789 17.693 66.5443 17.457 66.4262 17.2594C64.2737 13.6585 61.5292 10.4882 58.2693 7.83691C58.0908 7.69187 57.8629 7.6239 57.6332 7.64691C57.4045 7.67062 57.1944 7.78401 57.0493 7.96245L50.482 16.0371C50.3369 16.2156 50.2685 16.4444 50.2922 16.6732C50.3157 16.9019 50.4292 17.112 50.6077 17.2573C52.7647 19.0112 54.58 21.1081 56.0036 23.4897C56.1661 23.7614 56.4537 23.9122 56.749 23.9122C56.9004 23.9122 57.0538 23.8725 57.1931 23.7892L66.1269 18.449C66.3241 18.331 66.4666 18.1393 66.5229 17.9162Z" fill="#525252"/>
<path d="M69.8395 24.8759C69.6961 24.4187 69.2093 24.164 68.7526 24.3075L58.8207 27.4195C58.3635 27.5627 58.1091 28.0493 58.2523 28.5062C58.9651 30.7818 59.3266 33.1586 59.3266 35.5707C59.3266 35.9259 59.3177 36.2882 59.2997 36.6783C59.289 36.908 59.37 37.1328 59.5251 37.3027C59.68 37.4727 59.8962 37.5742 60.1259 37.5847L70.5229 38.065C70.5367 38.0656 70.5503 38.066 70.5638 38.066C71.0244 38.066 71.4079 37.7036 71.4296 37.2388C71.4564 36.6602 71.4696 36.1146 71.4696 35.5707C71.4693 31.9256 70.9212 28.3273 69.8395 24.8759Z" fill="#525252"/>
<path d="M35.704 33.73C35.5544 33.73 35.4056 33.7349 35.2574 33.7428L21.1679 25.4299C20.8231 25.2261 20.3853 25.2771 20.0963 25.5542C19.8072 25.8311 19.7378 26.2665 19.9263 26.6194L27.6122 41.0248C27.5839 41.3022 27.5689 41.5824 27.5689 41.865C27.5689 44.038 28.415 46.0809 29.9515 47.6173C31.4881 49.1539 33.5311 50.0001 35.7041 50.0001C37.8771 50.0001 39.92 49.1537 41.4564 47.6173C42.993 46.0809 43.8391 44.038 43.8391 41.865C43.8391 39.6919 42.9929 37.6491 41.4564 36.1126C39.92 34.5762 37.8769 33.73 35.704 33.73Z" fill="#525252"/>
</svg>
